X:455
T:The Successful Premedical Student (for Krissi)
C:Alex Furches
M:4/4
O:USA
%%TUNEURL: http://www.leeds.ac.uk/music/Info/RRTuneBk/gettune/00000c51.html
%%ID:00000c51
K:D
fe|\
dA (3cBA dDFA|dA (3cBA BGBd|\
eA (3cBA eA (3cBA|egfd ecAc|
dA (3cBA dA (3cBA|dDFA BGBd|\
eA (3cBA egfd|ec (3ABc d2::
gf|\
eBGB gBGB|efgf eBGB|\
efgf edBd|Ad Bd Ad Bd|
eBGB gBGB|efgf eBGB|\
efga {^a}b2 ag|(3fed (3edc d2:|
